(Created with emc2b post processor 2026/04/14 22:18)
(tool change to 2 mm Taschen Fraeser)
T1 M06 G43
G17 G90 G21
(Zeichnung 2)
G00 X-52 Y-16.55 S7000 M03
Z5
G01 Z-5 F50
G02 X-52 Y-17.55 I0 J-0.5 
X-53.55 Y-16 I0 J1.55 
X-50.45 Y-16 I1.55 J0 
X-52 Y-17.55 I-1.55 J0 
X-52 Y-16.55 I0 J0.5 
G00 Z5
G90
(Zeichnung 3)
X-52 Y15.45 S7000 M03
G01 Z-5 
G02 X-52 Y14.45 I0 J-0.5 
X-53.55 Y16 I0 J1.55 
X-50.45 Y16 I1.55 J0 
X-52 Y14.45 I-1.55 J0 
X-52 Y15.45 I0 J0.5 
G00 Z5
G90
(Zeichnung 4)
X-42.6 Y17.5 S7000 M03
G01 Z-5 
G02 X-42.6 Y16.5 I0 J-0.5 
X-44.1 Y18 I0 J1.5 
X-41.1 Y18 I1.5 J0 
X-42.6 Y16.5 I-1.5 J0 
X-42.6 Y17.5 I0 J0.5 
G00 Z5
G90
(Zeichnung 5)
X-42.6 Y5.5 S7000 M03
G01 Z-5 
G02 X-42.6 Y4.5 I0 J-0.5 
X-44.1 Y6 I0 J1.5 
X-41.1 Y6 I1.5 J0 
X-42.6 Y4.5 I-1.5 J0 
X-42.6 Y5.5 I0 J0.5 
G00 Z5
G90
(Zeichnung 6)
X-42.6 Y-6.5 S7000 M03
G01 Z-5 
G02 X-42.6 Y-7.5 I0 J-0.5 
X-44.1 Y-6 I0 J1.5 
X-41.1 Y-6 I1.5 J0 
X-42.6 Y-7.5 I-1.5 J0 
X-42.6 Y-6.5 I0 J0.5 
G00 Z5
G90
(Zeichnung 7)
X-42.6 Y-18.5 S7000 M03
G01 Z-5 
G02 X-42.6 Y-19.5 I0 J-0.5 
X-44.1 Y-18 I0 J1.5 
X-41.1 Y-18 I1.5 J0 
X-42.6 Y-19.5 I-1.5 J0 
X-42.6 Y-18.5 I0 J0.5 
G00 Z5
G90
(Zeichnung 8)
X-25.6 Y17.4 S7000 M03
G01 Z-5 
G02 X-25.6 Y16.4 I0 J-0.5 
X-27.2 Y18 I0 J1.6 
X-24 Y18 I1.6 J0 
X-25.6 Y16.4 I-1.6 J0 
X-25.6 Y17.4 I0 J0.5 
G00 Z5
G90
(Zeichnung 9)
X-16.6 Y17.4 S7000 M03
G01 Z-5 
G02 X-16.6 Y16.4 I0 J-0.5 
X-18.2 Y18 I0 J1.6 
X-15 Y18 I1.6 J0 
X-16.6 Y16.4 I-1.6 J0 
X-16.6 Y17.4 I0 J0.5 
G00 Z5
G90
(Zeichnung 10)
X-7.6 Y17.4 S7000 M03
G01 Z-5 
G02 X-7.6 Y16.4 I0 J-0.5 
X-9.2 Y18 I0 J1.6 
X-6 Y18 I1.6 J0 
X-7.6 Y16.4 I-1.6 J0 
X-7.6 Y17.4 I0 J0.5 
G00 Z5
G90
(Zeichnung 11)
X1.4 Y17.4 S7000 M03
G01 Z-5 
G02 X1.4 Y16.4 I0 J-0.5 
X-0.2 Y18 I0 J1.6 
X3 Y18 I1.6 J0 
X1.4 Y16.4 I-1.6 J0 
X1.4 Y17.4 I0 J0.5 
G00 Z5
G90
(Zeichnung 12)
X10.4 Y17.4 S7000 M03
G01 Z-5 
G02 X10.4 Y16.4 I0 J-0.5 
X8.8 Y18 I0 J1.6 
X12 Y18 I1.6 J0 
X10.4 Y16.4 I-1.6 J0 
X10.4 Y17.4 I0 J0.5 
G00 Z5
G90
(Zeichnung 13)
X-25.6 Y8.4 S7000 M03
G01 Z-5 
G02 X-25.6 Y7.4 I0 J-0.5 
X-27.2 Y9 I0 J1.6 
X-24 Y9 I1.6 J0 
X-25.6 Y7.4 I-1.6 J0 
X-25.6 Y8.4 I0 J0.5 
G00 Z5
G90
(Zeichnung 14)
X-16.6 Y8.4 S7000 M03
G01 Z-5 
G02 X-16.6 Y7.4 I0 J-0.5 
X-18.2 Y9 I0 J1.6 
X-15 Y9 I1.6 J0 
X-16.6 Y7.4 I-1.6 J0 
X-16.6 Y8.4 I0 J0.5 
G00 Z5
G90
(Zeichnung 15)
X-7.6 Y8.4 S7000 M03
G01 Z-5 
G02 X-7.6 Y7.4 I0 J-0.5 
X-9.2 Y9 I0 J1.6 
X-6 Y9 I1.6 J0 
X-7.6 Y7.4 I-1.6 J0 
X-7.6 Y8.4 I0 J0.5 
G00 Z5
G90
(Zeichnung 16)
X1.4 Y8.4 S7000 M03
G01 Z-5 
G02 X1.4 Y7.4 I0 J-0.5 
X-0.2 Y9 I0 J1.6 
X3 Y9 I1.6 J0 
X1.4 Y7.4 I-1.6 J0 
X1.4 Y8.4 I0 J0.5 
G00 Z5
G90
(Zeichnung 17)
X10.4 Y8.4 S7000 M03
G01 Z-5 
G02 X10.4 Y7.4 I0 J-0.5 
X8.8 Y9 I0 J1.6 
X12 Y9 I1.6 J0 
X10.4 Y7.4 I-1.6 J0 
X10.4 Y8.4 I0 J0.5 
G00 Z5
G90
(Zeichnung 18)
X-25.6 Y-0.6 S7000 M03
G01 Z-5 
G02 X-25.6 Y-1.6 I0 J-0.5 
X-27.2 Y0 I0 J1.6 
X-24 Y0 I1.6 J0 
X-25.6 Y-1.6 I-1.6 J0 
X-25.6 Y-0.6 I0 J0.5 
G00 Z5
G90
(Zeichnung 19)
X-16.6 Y-0.6 S7000 M03
G01 Z-5 
G02 X-16.6 Y-1.6 I0 J-0.5 
X-18.2 Y0 I0 J1.6 
X-15 Y0 I1.6 J0 
X-16.6 Y-1.6 I-1.6 J0 
X-16.6 Y-0.6 I0 J0.5 
G00 Z5
G90
(Zeichnung 20)
X-7.6 Y-0.6 S7000 M03
G01 Z-5 
G02 X-7.6 Y-1.6 I0 J-0.5 
X-9.2 Y0 I0 J1.6 
X-6 Y0 I1.6 J0 
X-7.6 Y-1.6 I-1.6 J0 
X-7.6 Y-0.6 I0 J0.5 
G00 Z5
G90
(Zeichnung 21)
X1.4 Y-0.6 S7000 M03
G01 Z-5 
G02 X1.4 Y-1.6 I0 J-0.5 
X-0.2 Y0 I0 J1.6 
X3 Y0 I1.6 J0 
X1.4 Y-1.6 I-1.6 J0 
X1.4 Y-0.6 I0 J0.5 
G00 Z5
G90
(Zeichnung 22)
X10.4 Y-0.6 S7000 M03
G01 Z-5 
G02 X10.4 Y-1.6 I0 J-0.5 
X8.8 Y0 I0 J1.6 
X12 Y0 I1.6 J0 
X10.4 Y-1.6 I-1.6 J0 
X10.4 Y-0.6 I0 J0.5 
G00 Z5
G90
(Zeichnung 23)
X37.4 Y-0.55 S7000 M03
G01 Z-5 
G02 X37.4 Y-1.55 I0 J-0.5 
X35.85 Y0 I0 J1.55 
X38.95 Y0 I1.55 J0 
X37.4 Y-1.55 I-1.55 J0 
X37.4 Y-0.55 I0 J0.5 
G00 Z5
G90
(Zeichnung 24)
X-25.6 Y-9.6 S7000 M03
G01 Z-5 
G02 X-25.6 Y-10.6 I0 J-0.5 
X-27.2 Y-9 I0 J1.6 
X-24 Y-9 I1.6 J0 
X-25.6 Y-10.6 I-1.6 J0 
X-25.6 Y-9.6 I0 J0.5 
G00 Z5
G90
(Zeichnung 25)
X-16.6 Y-9.6 S7000 M03
G01 Z-5 
G02 X-16.6 Y-10.6 I0 J-0.5 
X-18.2 Y-9 I0 J1.6 
X-15 Y-9 I1.6 J0 
X-16.6 Y-10.6 I-1.6 J0 
X-16.6 Y-9.6 I0 J0.5 
G00 Z5
G90
(Zeichnung 26)
X-7.6 Y-9.6 S7000 M03
G01 Z-5 
G02 X-7.6 Y-10.6 I0 J-0.5 
X-9.2 Y-9 I0 J1.6 
X-6 Y-9 I1.6 J0 
X-7.6 Y-10.6 I-1.6 J0 
X-7.6 Y-9.6 I0 J0.5 
G00 Z5
G90
(Zeichnung 27)
X1.4 Y-9.6 S7000 M03
G01 Z-5 
G02 X1.4 Y-10.6 I0 J-0.5 
X-0.2 Y-9 I0 J1.6 
X3 Y-9 I1.6 J0 
X1.4 Y-10.6 I-1.6 J0 
X1.4 Y-9.6 I0 J0.5 
G00 Z5
G90
(Zeichnung 28)
X10.4 Y-9.6 S7000 M03
G01 Z-5 
G02 X10.4 Y-10.6 I0 J-0.5 
X8.8 Y-9 I0 J1.6 
X12 Y-9 I1.6 J0 
X10.4 Y-10.6 I-1.6 J0 
X10.4 Y-9.6 I0 J0.5 
G00 Z5
G90
(Zeichnung 32)
X-25.6 Y-18.6 S7000 M03
G01 Z-5 
G02 X-25.6 Y-19.6 I0 J-0.5 
X-27.2 Y-18 I0 J1.6 
X-24 Y-18 I1.6 J0 
X-25.6 Y-19.6 I-1.6 J0 
X-25.6 Y-18.6 I0 J0.5 
G00 Z5
G90
(Zeichnung 29)
X-16.6 Y-18.6 S7000 M03
G01 Z-5 
G02 X-16.6 Y-19.6 I0 J-0.5 
X-18.2 Y-18 I0 J1.6 
X-15 Y-18 I1.6 J0 
X-16.6 Y-19.6 I-1.6 J0 
X-16.6 Y-18.6 I0 J0.5 
G00 Z5
G90
(Zeichnung 30)
X-7.6 Y-18.6 S7000 M03
G01 Z-5 
G02 X-7.6 Y-19.6 I0 J-0.5 
X-9.2 Y-18 I0 J1.6 
X-6 Y-18 I1.6 J0 
X-7.6 Y-19.6 I-1.6 J0 
X-7.6 Y-18.6 I0 J0.5 
G00 Z5
G90
(Zeichnung 31)
X1.4 Y-18.6 S7000 M03
G01 Z-5 
G02 X1.4 Y-19.6 I0 J-0.5 
X-0.2 Y-18 I0 J1.6 
X3 Y-18 I1.6 J0 
X1.4 Y-19.6 I-1.6 J0 
X1.4 Y-18.6 I0 J0.5 
G00 Z5
G90
(Zeichnung 33)
X10.4 Y-18.6 S7000 M03
G01 Z-5 
G02 X10.4 Y-19.6 I0 J-0.5 
X8.8 Y-18 I0 J1.6 
X12 Y-18 I1.6 J0 
X10.4 Y-19.6 I-1.6 J0 
X10.4 Y-18.6 I0 J0.5 
G00 Z5
T0 M06 M02
